X: 3
T: Dr. Ross's 50th Welcome To The Argyllshire Gathering
Z: ceolachan
S: https://thesession.org/tunes/9053#setting19861
R: reel
M: 4/4
L: 1/8
K: Amaj
A>ce c<Ac | e>fe c2 A | c<ee e>cA | B<dc B2 G |A>ce c<Ac | e>fe c2 A | c<ee e>dB | A3 A2 :|a2 a A>ce | e>ca c2 A | a>ed c<Ac | B<dc B2 G |A>ce c<Ac | e>fe c2 A | c<ee e>dB | A3 A2 :|A2 A c2 d | e>fe c2 A | e2 A c2 e | B<dc B2 G |A2 A c2 d | e>fe c2 A | c<ee e>dB | A3 A2 :|a2 A e2 A | e>ca c2 A | c<ea e>cA | B<dg B2 G ||A>Bc B>cd | c<ea c2 A | c<ee e>dB | A3 A2 :|
